X:1
T:Judge and defend my cause, O Lord
T:Judge and defend my cause, O Lord (John Smith)
C:John Smith
C:(of Market Lavington)
Z:Text: Thomas Sternhold, on Ps. 43
%%score [ 1 2 3 4 ]
L:1/8
M:3/2
K:G
V:1 treble nm="Soprano" snm="S."
V:2 treble nm="Alto" snm="A."
V:3 treble-8 transpose=-12 nm="Tenor" snm="T."
V:4 bass nm="Bass" snm="B."
V:1
 G4 | G8 G4 | (A4 B4) c4 | e4 d8 | B8 A4 | F8 G4 | A8 B4 | d8 A4 | (B4 c4) d4 | (e3 d c4) d4 | %10
w: O|Lord, send|out _ thy|light and|truth, And|lead me|with thy|grace; Which|may _ con-|duct _ _ me|
w: Judge|and de-|fend _ my|cause, O|Lord, ’Gainst|them that|e- vil|be: From|wick- * ed|and _ _ de-|
w: For|of my|strength _ thou|art the|God: Why|am I|put from|thee? Why|walk _ I|hea- * * vi-|
 B8 A4 | F8 F4 | (G3 A B4) B4 | e4 d8 | B8 |] %15
w: to thy|hill, And|to _ _ thy|dwell- ing-|place.|
w: ceit- ful|men, O|Lord, _ _ de-|li- ver|me.|
w: ly, whilst|that My|foe _ _ op-|press- eth|me?|
V:2
 D4 | D8 E4 | F8 G4 | E4 F8 | G8 F4 | D8 D4 | E8 G4 | F8 F4 | (F4 E4) F4 | G8 F4 | G8 E4 | D8 D4 | %12
w: O|Lord, send|out thy|light and|truth, And|lead me|with thy|grace; Which|may _ con-|duct me|to thy|hill, And|
w: Judge|and de-|fend my|cause, O|Lord, ’Gainst|them that|e- vil|be: From|wick- * ed|and de-|ceit- ful|men, O|
w: For|of my|strength thou|art the|God: Why|am I|put from|thee? Why|walk _ I|hea- vi-|ly, whilst|that My|
 (D3 C B,4) D4 | E4 F8 | G8 |] %15
w: to _ _ thy|dwell- ing-|place.|
w: Lord, _ _ de-|li- ver|me.|
w: foe _ _ op-|press- eth|me?|
V:3
 G4 | (B3 c B4) G4 | (d3 c B4) G4 | (c3 B) A8 | G8 A4 | (B3 A G4) d4 | c8 B4 | A8 d4 | %8
w: O|Lord, _ _ send|out _ _ thy|light _ and|truth, And|lead _ _ me|with thy|grace; Which|
w: Judge|and _ _ de-|fend _ _ my|cause, _ O|Lord, ’Gainst|them _ _ that|e- vil|be: From|
w: For|of _ _ my|strength _ _ thou|art _ the|God: Why|am _ _ I|put from|thee? Why|
 (d3 c B4) B4 | (B3 A G4) A4 | (B3 c d4) ^c4 | d8 A4 | (B3 c d4) B4 | c4 A8 | G8 |] %15
w: may _ _ con-|duct _ _ me|to _ _ thy|hill, And|to _ _ thy|dwell- ing-|place.|
w: wick- * * ed|and _ _ de-|ceit- * * ful|men, O|Lord, _ _ de-|li- ver|me.|
w: walk _ _ I|hea- * * vi-|ly, _ _ whilst|that My|foe _ _ op-|press- eth|me?|
V:4
 G,,4 | G,8 E,4 | D,8 E,4 | C,4 D,8 | G,,8 D,4 | (D,3 C, B,,4) B,,4 | A,,8 G,,4 | D,8 D,4 | %8
w: O|Lord, send|out thy|light and|truth, And|lead _ _ me|with thy|grace; Which|
w: Judge|and de-|fend my|cause, O|Lord, ’Gainst|them _ _ that|e- vil|be: From|
w: For|of my|strength thou|art the|God: Why|am _ _ I|put from|thee? Why|
 (D,4 E,4) D,4 | (G,3 F, E,4) D,4 | %10
w: may _ con-|duct _ _ me|
w: wick- * ed|and _ _ de-|
w: walk _ I|hea- * * vi-|
"^Emendations: The order of staves in the source is the same as in this edition: no indication is given of the allocation of the treble and tenor parts. The counter part is notated in the treble clef an octave higher thangiven here.The only indication of the text given in the source is the title 'Psalm ye 43d'. The version to be used is notspecified: some tunes in the book specify that New Version texts are to be used, while no tunes specifythe use of Old Version texts (possibly suggesting that if New Version is not specified, Old Version shouldbe used)." G,8 A,4 | %11
w: to thy|
w: ceit- ful|
w: ly, whilst|
 D,8 D,4 | (B,,3 A,, G,,4) G,4 | C,4 D,8 | G,,8 |] %15
w: hill, And|to _ _ thy|dwell- ing-|place.|
w: men, O|Lord, _ _ de-|li- ver|me.|
w: that My|foe _ _ op-|press- eth|me?|

